!! Dmitri Kabalevsky, From Five Sets of Variations, Opus 51 (for piano)
!! "Five Happy Variations on a Russian Folksong"
!! Theme
!! Allegro
!! Tempo: quarter-note equals 144-160 beats per minute.
**kern	**kern
*M2/4	*M2/4
*F:	*F:
*M2/4	*M2/4
=1	=1
{4A	2r
4c	.
=2	=2
8G	2r
8B-	.
8A	.
8G	.
=3	=3
2F}	8r
.	{8c
.	4f}
=4	=4
{4A	2r
4c	.
=5	=5
8G	2r
8B-	.
8A	.
8G	.
=6	=6
2F}	8r
.	{8f
.	4ff}
=7	=7
{4D	2r
4G	.
=8	=8
4C	2r
8A	.
8G	.
=9	=9
2F}	8r
.	{8c
.	4f}
=10	=10
{4D	2r
4G	.
=11	=11
4C	2r
8A	.
8G	.
=12	=12
2F}	8r
.	{8f
.	4ff}
==	==
*-	*-
